X:1
T:Title
%%score { ( 1 3 ) | ( 2 4 ) }
L:1/8
M:4/4
K:G
V:1 treble nm="Grand Piano"
V:3 treble 
V:2 bass 
V:4 bass 
V:1
 z8[Q:1/4=110] | B,8- | [B,-B]3 [B,-A] [B,-G]2 [B,F]2 | A2 G2 E2 G2 | D6 D2 | D2 z2 z4 | B4 z4 | %7
 ^C2- [C-F]2 [C-G]2 [CE]2 | A6 D2 | B,8- | [B,-B]3 [B,-A] [B,-G]2 [B,F]2 | A2 G2 E2 G2 | %12
 [D,B,D]6 D2 | B3 B c2 B2 |[M:3/4] B2 A2 E2 |[M:1/4] A2 |[M:4/4] B2 A2 F3 D |[M:3/4] [B,G]6 | %18
[M:1/4] [B,D]2 |[M:4/4] [DB]4 [B,G]2 [B,D]2 | [Dd]4 [DB]2 [B,D]2 | B,-[B,E]FG [Ec]2 [DB]2 | %22
[M:3/4] E6 |[M:1/4] [CE]2 |[M:4/4] [CA]4 [CE]2 [CE]2 | [Ec]4 [CA]2 [CA]2 | d2 A2 G2 A2 | %27
 [B,B]6 [B,D]2 | [DB]4 [B,G]2 [B,D]2 |[M:3/4] d4 B2 |[M:1/4] B2 |[M:4/4] B2 _B=B [^Ge]2 [Gd]2 | %32
 [Ac]6 z2 | [DGB]4 [Dd]2 [DG]2 |[M:9/8] [DF]2 [CE]- [CE] [Ec]2- [Ec] [EA]2 |[M:4/4] G2 B2 B3 A | %36
[M:3/4] [B,G]6 |] %37
V:2
 z4 z2 D2 | z2 E2 F2 G2 | ^D,8 | [E,C]8 | [D,B,]6 z2 | z2[K:treble] E2 F2 G2 | %6
 z2 z[K:treble] A A2 F2 | z2 F,2 E,2 G,2 | [D,F,C]6 z2 | z2 E2 F2 G2 | ^D,8 | E,6 ^D,2 | G,,6 z2 | %13
 D4 E2 D2 |[M:3/4] [A,,G,]6 |[M:1/4] z2 |[M:4/4] [D,F,C]8 |[M:3/4] [G,,D,G,]6 |[M:1/4] [G,,G,]2 | %19
[M:4/4] [G,,G,]4 [G,,D,]2 [G,,G,]2 | [G,,B,]4 [G,,G,]2 [G,,G,]2 | %21
 [G,,G,]2 [G,,D,]2 [G,,G,]2 [G,,G,]2 |[M:3/4] [C,G,C]2 [B,,^G,]2 [A,,A,]2 |[M:1/4] [A,,A,]2 | %24
[M:4/4] [A,,E,]4 [A,,A,]2 [A,,A,]2 | [A,,A,]4 [A,,A,]2 [A,,A,]2 | %26
 [D,F,C]2 [D,F,C]2 [E,C]2 [D,F,C]2 | [G,,G,]6 [G,,G,]2 | [G,,G,]4 [G,,D,]2 [G,,G,]2 | %29
[M:3/4] [G,B,D]4 [G,D]2 |[M:1/4] [F,A,^D]2 |[M:4/4] [E,^G,E]2 E-[E,^G,E] [E,B,]2 [E,E]2 | %32
 [A,E]2 G,2 F,2 D,2 | G,4 [G,B,]2 [B,,G,]2 |[M:9/8] [C,G,]3- [C,G,] [C,G,]2- [C,G,] [C,C]2 | %35
[M:4/4] [D,B,D]2 [D,G,D]2 [D,F,D]3 [D,F,C] |[M:3/4] [G,,G,]6 |] %37
V:3
 x8 | [D,-D]2 D,6 | x8 | x8 | x8 | [D,B,]8 | D8 | [G,E]2 z2 z4 | x8 | [D,-D]2 D,6 | x8 | C8 | x8 | %13
 x8 |[M:3/4] ^C6 |[M:1/4] x2 |[M:4/4] x8 |[M:3/4] x6 |[M:1/4] x2 |[M:4/4] x8 | x8 | .D2 B,2 z4 | %22
[M:3/4] z2 D2 C2 |[M:1/4] x2 |[M:4/4] x8 | x8 | x8 | x8 | x8 |[M:3/4] x6 |[M:1/4] x2 |[M:4/4] x8 | %32
 z2 ^D2 =D2 [DFA]2 | x8 |[M:9/8] x9 |[M:4/4] x8 |[M:3/4] x6 |] %37
V:4
 x8 | G,,8- | G,,8- | G,,8- | G,,6 z2 | G,,8[K:treble] | [A,,F,]8[K:treble] | A,,8 | x8 | G,,8- | %10
 G,,8 | G,,8 | x8 | [E,^G,]8 |[M:3/4] x6 |[M:1/4] x2 |[M:4/4] x8 |[M:3/4] x6 |[M:1/4] x2 | %19
[M:4/4] x8 | x8 | x8 |[M:3/4] x6 |[M:1/4] x2 |[M:4/4] x8 | x8 | x8 | x8 | x8 |[M:3/4] x6 | %30
[M:1/4] x2 |[M:4/4] z2 .=G,2 z4 | x8 | x8 |[M:9/8] x9 |[M:4/4] x8 |[M:3/4] x6 |] %37

